svgs/duotone/space-station-moon-construction.svg

<svg xmlns="http://www.w3.org/2000/svg" viewBox="0 0 512 512"><!--! Font Awesome Pro 6.6.0 by @fontawesome - https://fontawesome.com License - https://fontawesome.com/license (Commercial License) Copyright 2024 Fonticons, Inc. --><defs><style>.fa-secondary{opacity:.4}</style></defs><path class="fa-secondary" d="M0 256c0 7.8 .3 15.5 1 23.1C73.2 304.7 160.8 320 256 320s182.8-15.3 255-40.9c.7-7.6 1-15.3 1-23.1c0-10.8-.7-21.5-2-32l-62 0 0-64-80 0 0-64 48 0 0-39.9C372.2 21 316.5 0 256 0C114.6 0 0 114.6 0 256zm6.8 58.8C33.4 427.9 134.9 512 256 512c76.5 0 145.1-33.5 192-86.7l0-41.3-64 0 0-41.2c-40.7 6-83.7 9.2-128 9.2c-91.3 0-176.6-13.6-249.2-37.2zM272 160a80 80 0 1 1 -160 0 80 80 0 1 1 160 0z"/><path class="fa-primary" d="M224 160a32 32 0 1 0 -64 0 32 32 0 1 0 64 0zm-112 0a80 80 0 1 1 160 0 80 80 0 1 1 -160 0zM6.8 314.8C4.1 303.2 2.1 291.3 1 279.1C73.2 304.7 160.8 320 256 320s182.8-15.3 255-40.9c-1.1 12.2-3 24.1-5.8 35.8C432.6 338.4 347.3 352 256 352s-176.6-13.6-249.2-37.2z"/></svg>

<svg xmlns="http://www.w3.org/2000/svg" viewBox="0 0 512 512"><!--! Font Awesome Pro 6.4.0 by @fontawesome - https://fontawesome.com License - https://fontawesome.com/license (Commercial License) Copyright 2023 Fonticons, Inc. --><defs><style>.fa-secondary{opacity:.4}</style></defs><path class="fa-primary" d="M224 160a32 32 0 1 0 -64 0 32 32 0 1 0 64 0zm-112 0a80 80 0 1 1 160 0 80 80 0 1 1 -160 0zM6.8 314.8C4.1 303.2 2.1 291.3 1 279.1C73.2 304.7 160.8 320 256 320s182.8-15.3 255-40.9c-1.1 12.2-3 24.1-5.8 35.8C432.6 338.4 347.3 352 256 352s-176.6-13.6-249.2-37.2z"/><path class="fa-secondary" d="M511 279.1c.7-7.6 1-15.3 1-23.1c0-10.8-.7-21.5-2-32H448V160H368V96h48V56.1C372.2 21 316.5 0 256 0C114.6 0 0 114.6 0 256c0 7.8 .3 15.5 1 23.1C73.2 304.7 160.8 320 256 320s182.8-15.3 255-40.9zM6.8 314.8C33.4 427.9 134.9 512 256 512c76.5 0 145.1-33.5 192-86.7V384H384V342.8c-40.7 6-83.7 9.2-128 9.2c-91.3 0-176.6-13.6-249.2-37.2zM112 160a80 80 0 1 1 160 0 80 80 0 1 1 -160 0z"/></svg>
